X:1
T:Metz, 87.87 D
T:Metz, 87.87 D
T:William Fiske Sherwin, 1881
T:Public Domain Courtesy of the Cyber Hymnal™
C:William Fiske Sherwin, 1881
Z:Public Domain
Z:Courtesy of the Cyber Hymnal™
%%score ( 1 2 ) ( 3 4 )
L:1/8
Q:1/4=110
M:4/4
K:A
V:1 treble 
V:2 treble 
V:3 bass 
V:4 bass 
V:1
 [CE]2 | [CA]3 [CA] [DG]2 E2 | [EA]2 [EA]2 [EG]2 E2 | [EA]3 [EA] [EB]2 [Ec]2 | [Ec]2 [EB]4 [^Ec]2 | %5
 [FA]3 [FA] [FB]2 [FB]2 | [EG]2 [EG]2 [EA]2 [CE]2 | [DF]2 [Fd]2 [Ec]3 [DB] | [DB]2 [CA]4 [B,E]2 | %9
 [EG]3 [FA] [GB]2 [EG]2 | [EA]3 [EB] [Ec]2 [Ac]2 | [Gd]3 [Ac] [EB]2 [^DA]2 | [Ec]2 [EB]4 [EB]2 | %13
 [Ee]3 [Ee] [Ed]2 [Ec]2 | [FB]3 [FA] [DF]2 [DA]2 | E2 [CA]2 [Ec]3 [DB] | [DB]2 [CA]4 |] %17
V:2
 x2 | x6 E2 | x6 E2 | x8 | x8 | x8 | x8 | x8 | x8 | x8 | x8 | x8 | x8 | x8 | x8 | E2 x6 | x6 |] %17
V:3
 [A,,E,]2 | [A,,E,]3 [A,,E,] [B,,E,]2 [D,G,]2 | [C,A,]2 [C,A,]2 [E,B,]2 [D,G,]2 | %3
 [C,A,]3 [C,A,] [B,,G,]2 [A,,A,]2 | [E,A,]2 [E,G,]4 [C,G,]2 | [F,A,]3 [F,C] [^D,B,]2 [D,B,]2 | %6
 [E,B,]2 [D,B,]2 [C,A,]2 [A,,A,]2 | [D,A,]2 [D,A,]2 [E,A,]3 [E,G,] | [A,,A,]2 [A,,A,]4 [E,G,]2 | %9
 [E,B,]3 [E,B,] [E,B,]2 [D,B,]2 | [C,A,]3 [B,,G,] [A,,A,]2 [A,E]2 | [B,E]3 [A,E] [G,B,]2 [F,B,]2 | %12
 [E,A,]2 [E,G,]4 [D,G,]2 | [C,A,]3 [C,A,] [B,,G,]2 [A,,A,]2 | [D,A,]3 [D,A,] [D,A,]2 [D,F,]2 | %15
 [C,A,]2 [A,,A,]2 [E,A,]3 E, | [A,,E,]2 [A,,E,]4 |] %17
V:4
 x2 | x8 | x8 | x8 | x8 | x8 | x8 | x8 | x8 | x8 | x8 | x8 | x8 | x8 | x8 | x7 E, | x6 |] %17

